X:12033
T:Lemmie Brazil's 1 and 2
T:Lemmy Brazil's Nos 1 and 2
R:Hornpipe
C:Trad.
O:England
Z:Paul Hardy's Session Tunebook 2022 (see www.paulhardy.net). Creative Commons cc by-nc-sa licenced.
M:4/4
L:1/8
Q:1/4=130
K:G
T:Lemmie Brazil's No.1
ef|"G"gdBA GBdg|"C"edcd e2fe|"G"dgfe "D"dB (3cBA|"G"GBde "D"d2ef|
"G"gdBA GBdg|"C"edcd e2fe|"G"dgfe "D"dB (3cBA|"G"G2g2g2:|
|:B2|"G"(3BdB G2B4|"C"c2A2 cdef|"G"ggfe dBGd|"C"e2dB "D"A4|
"G"(3BdB G2B4|"C"c2A2cdef|"G"ggfe dB (3GAB|"D"A2F2"G"G2:|
T:Lemmie Brazil's No.2
K:D
AG|"D"F2A2 "A"(3BcB A2|"D"defd "A"(3BcB AG|"D"FAdA "G"Bcdf|"Em"e2e2 "A"e2AG|
"D"F2A2 "A"(3BcB A2|"D"defd "A"(3BcB AG|"D"FAdA "G"Bcdf|"A7"e2e2"D"d2:|
|:fg|"D"afdf afdf|defd "A"(3BcB AG|"D"FAdA "G"Bcdf|"Em"e2e2 "A"e2fg|
"D"afdf afdf|defd "A"(3BcB AG|"D"FAdA "G"Bcdf|"A7"e2e2"D"d2:|

